usr/share/icons/biglinux-icons-material-dark/22/actions/text-speak.svg

<svg xmlns="http://www.w3.org/2000/svg" viewBox="0 0 22 22">
  <defs id="defs3051">
    <style type="text/css" id="current-color-scheme">
      .ColorScheme-Text {
        color:#dedede;
      }
      </style>
  </defs>
 <path 
     style="fill:currentColor;fill-opacity:1;stroke:none" 
     d="M 6 3 L 6 10 L 14 10 L 14 13 L 17 10 L 17 3 L 6 3 z M 7 4 L 16 4 L 16 9 L 7 9 L 7 4 z M 9 11 L 6 13.5 L 5 13.5 L 5 16.5 L 6 16.5 L 9 19 L 9.5 19 L 10 19 L 10 11 L 9.5 11 L 9 11 z "
	 class="ColorScheme-Text"
     />
</svg>

<svg xmlns="http://www.w3.org/2000/svg" viewBox="0 0 22 22">
<defs id="defs3051">
<style id="current-color-scheme" type="text/css">
.ColorScheme-Text{color:#dedede}
</style>
</defs>
<path d="M6 3v7h8v3l3-3V3zm1 1h9v5H7zm2 7-3 2.5H5v3h1L9 19h1v-8z" class="ColorScheme-Text" style="fill:currentColor;fill-opacity:1;stroke:none"/>
</svg>
